communes/4231.svg

<?xml version="1.0" encoding="UTF-8"?>
<!DOCTYPE svg  PUBLIC '-//W3C//DTD SVG 1.0//EN'  'http://www.w3.org/TR/2001/REC-SVG-20010904/DTD/svg10.dtd'>
<svg width="687" height="768" version="1.0" viewBox="-2.3812 -2.3812 84.138 94.038" xmlns="http://www.w3.org/2000/svg">
<defs>
<clipPath id="b">
<path d="m354.48 321.95h63.71v-71.63h-63.71v71.63z"/>
</clipPath>
<clipPath id="a">
<path d="m354.48 321.95h63.71v-71.63h-63.71v71.63z"/>
</clipPath>
</defs>
<g transform="translate(-308.88 -184.87)">
<g transform="matrix(1.25 0 0 1.25 -134.35 -128.17)">
<g clip-path="url(#b)">
<path d="m354.59 250.43h63.5v39.68 1.62l-0.17 1.63-0.17 1.56-0.28 1.57-0.39 1.57-0.4 1.51-0.5 1.46-0.56 1.45-0.67 1.4-0.67 1.34-0.78 1.34-0.79 1.29-0.89 1.23-0.96 1.23-1.01 1.13-1.05 1.11-1.07 1.07-1.18 0.95-1.17 0.95-1.29 0.9-1.29 0.84-1.29 0.72-1.4 0.73-1.4 0.62-1.45 0.55-1.46 0.51-1.51 0.44-1.52 0.34-1.56 0.28-1.62 0.22-1.57 0.12-1.68 0.06-1.63-0.06-1.62-0.12-1.57-0.22-1.56-0.28-1.52-0.34-1.51-0.44-1.51-0.51-1.4-0.55-1.4-0.62-1.4-0.73-1.34-0.72-1.29-0.84-1.23-0.9-2.36-1.9-1.05-1.07-1.07-1.11-1.01-1.13-0.95-1.23-0.9-1.23-0.79-1.29-0.78-1.34-0.72-1.34-0.62-1.4-0.56-1.45-0.5-1.46-0.45-1.51-0.34-1.57-0.28-1.57-0.22-1.56-0.12-1.63-0.05-1.62v-39.68z" fill-rule="evenodd"/>
</g>
<g clip-path="url(#a)" fill-rule="evenodd">
<path d="m355.99 288.43h60.69v1.51 0 1.57l-0.11 1.57-0.21 1.5-0.29 1.52-0.34 1.45-0.39 1.46-1 2.8-0.62 1.34-0.67 1.34-0.73 1.29-0.79 1.23-0.84 1.18-0.89 1.18-0.95 1.05-1.01 1.07-1.06 1-1.12 1.02-1.12 0.89-1.24 0.84-1.22 0.79-1.24 0.73-1.35 0.66-1.34 0.62-1.34 0.56-1.45 0.45-1.41 0.44-1.45 0.34-1.51 0.28-1.51 0.17-1.57 0.11-1.57 0.06v0l-1.57-0.06-1.51-0.11-1.51-0.17-1.52-0.28-1.45-0.34-1.45-0.44-1.41-0.45-1.39-0.56-1.35-0.62-1.29-0.66-1.28-0.73-1.23-0.79-1.18-0.84-1.12-0.89-1.13-1.02-1.06-1-1-1.07-0.96-1.05-0.89-1.18-0.84-1.18-0.79-1.23-0.73-1.29-0.66-1.34-0.63-1.34-0.55-1.4-0.45-1.4-0.45-1.46-0.33-1.45-0.22-1.52-0.23-1.5-0.11-1.57-0.06-1.57v-1.51z" fill="#0093dd" stroke="#0093dd" stroke-linecap="round" stroke-linejoin="round" stroke-miterlimit="10" stroke-width=".12"/>
<path d="m395.24 283.9-2.29-2.13-0.06 0.28-0.17 0.28-0.16 0.22-0.29 0.23-0.28 0.23-0.33 0.11-0.34 0.05h-0.28l-0.34-0.11-0.27-0.23-0.23-0.28-0.11-0.44-0.11-0.56v-0.67l0.17-0.84 0.22-1.01 0.11-0.45 0.06-0.39v-0.39-0.45l-0.06-0.39-0.05-0.34-0.11-0.39-0.17-0.34-0.34-0.61-0.5-0.61-0.56-0.51-0.62-0.39v-2.41l2.19 0.06 0.11 0.28 0.16 0.28 0.18 0.28 0.27 0.28 0.57 0.5 0.32 0.22 0.4 0.17 0.78 0.34 0.39 0.11 0.45 0.06h0.45 0.45l0.39-0.11 0.45-0.18 0.78-0.27 0.73-0.17 0.62-0.06 0.51 0.06 0.44 0.11 0.34 0.17 0.27 0.22 0.17 0.28 0.06 0.28 0.06 0.34-0.06 0.28-0.12 0.33-0.16 0.29-0.22 0.22-0.34 0.16-0.34 0.17 1.24 1.12 1.12 1.12 0.44-0.45 0.34-0.39 0.33-0.39 0.23-0.4 0.22-0.44 0.17-0.4 0.11-0.38 0.06-0.4 0.05-0.33v-0.39l-0.05-0.34-0.06-0.39-0.11-0.34-0.11-0.28-0.39-0.61-0.45-0.56-0.56-0.45-0.62-0.39-0.67-0.28-0.67-0.17-0.72-0.06-0.74 0.06-0.33 0.06-0.4 0.11-1.06 0.34-0.95 0.11-0.72 0.05-0.34-0.05-0.29-0.06-0.27-0.11-0.23-0.11-0.17-0.12-0.17-0.16-0.16-0.34-0.11-0.34v-0.39l0.17-0.39 0.21-0.33 0.29-0.28 0.39-0.23 0.45-0.11h0.5l0.28 0.06 0.28 0.05 0.67 0.23 0.62 0.16 0.67 0.12 0.67 0.11 0.62 0.06h0.56 0.5l0.34-0.11 0.72-0.29 0.57-0.39 0.5-0.45 0.45-0.5 0.28-0.56 0.22-0.61 0.11-0.68 0.06-0.61-0.06-0.68-0.16-0.61-0.22-0.56-0.34-0.56-0.39-0.5-0.51-0.39-0.56-0.29-0.67-0.22-1.85 2.07 0.57 0.22 0.38 0.23 0.34 0.28 0.28 0.28 0.16 0.28 0.12 0.33v0.28l-0.06 0.34-0.11 0.28-0.45 0.45-0.28 0.16-0.33 0.12h-0.39-0.4l-0.44-0.12-1.01-0.39-0.96-0.28-0.89-0.22h-0.39-0.4l-0.44 0.06-0.4 0.1-0.39 0.23-0.39 0.28-0.39 0.34-0.39 0.44-0.4 0.57-0.38 0.61h-2.19l-0.06-2.47 0.68-0.5 0.56-0.5 0.44-0.56 0.34-0.56 0.23-0.67 0.05-0.67-0.05-0.79-0.12-0.89-0.16-0.9-0.12-0.78v-0.62l0.06-0.56 0.17-0.44 0.17-0.34 0.27-0.22 0.23-0.17 0.33-0.06h0.28l0.34 0.06 0.28 0.17 0.34 0.16 0.27 0.29 0.23 0.27 0.17 0.34 0.95-1.06 0.89-1.07-0.16-0.39-0.29-0.33-0.27-0.34-0.78-0.56-0.45-0.22-0.45-0.17-0.51-0.17-0.56-0.05h-0.5l-0.56 0.05-0.51 0.11-0.5 0.23-0.5 0.28-0.45 0.39-0.45 0.45-0.16 0.33-0.17 0.28-0.23 0.67-0.17 0.67-0.05 0.68v0.61l0.11 0.62 0.17 1 0.17 0.9 0.05 0.78-0.11 0.62-0.17 0.51-0.28 0.33-0.28 0.28-0.39 0.11h-0.34l-0.38-0.06-0.34-0.22-0.28-0.28-0.22-0.45-0.12-0.5v-0.56l0.06-0.73 0.28-0.78 0.16-0.56 0.12-0.56 0.11-0.67-0.06-0.67-0.11-0.68-0.22-0.66-0.11-0.29-0.23-0.34-0.22-0.27-0.23-0.28-0.34-0.28-0.38-0.28-0.4-0.23-0.38-0.16-0.46-0.17-0.44-0.06-0.46-0.05h-0.5l-0.45 0.05-0.5 0.12-0.5 0.22-0.45 0.23-0.51 0.33-0.44 0.39-0.45 0.5-0.45 0.51 2.36 2.29 0.1-0.45 0.18-0.39 0.22-0.27 0.28-0.29 0.33-0.17 0.34-0.11 0.33-0.05 0.29 0.05 0.34 0.17 0.21 0.22 0.23 0.29 0.17 0.44 0.05 0.51v0.67l-0.11 0.72-0.28 0.9-0.11 0.56-0.11 0.5-0.05 0.5 0.05 0.46 0.05 0.39 0.22 0.78 0.18 0.34 0.44 0.56 0.51 0.5 0.5 0.45 0.5 0.33 0.06 2.41h-2.3l-0.21-0.39-0.29-0.39-0.28-0.34-0.33-0.33-0.34-0.23-0.39-0.22-0.39-0.17-0.45-0.17-0.45-0.11-0.45-0.06h-0.44-0.51l-0.95 0.12-0.9 0.22-0.78 0.17-0.61 0.11h-0.57l-0.45-0.11-0.33-0.17-0.22-0.22-0.18-0.23-0.11-0.33v-0.34l0.06-0.28 0.11-0.34 0.23-0.33 0.22-0.28 0.34-0.23 0.33-0.16 0.39-0.12-0.95-0.89-0.89-0.95-0.34 0.11-0.56 0.34-0.28 0.22-0.23 0.22-0.22 0.29-0.33 0.61-0.17 0.62-0.12 0.73v0.66l0.06 0.73 0.23 0.68 0.28 0.66 0.39 0.56 0.45 0.51 0.27 0.22 0.29 0.17 0.33 0.17 0.34 0.11 0.34 0.06 0.39 0.06h0.38l0.4-0.06 1.28-0.23 1.35-0.23 0.62-0.1h0.5 0.5l0.4 0.1 0.39 0.18 0.23 0.28 0.1 0.17 0.06 0.16 0.06 0.45v0.39l-0.06 0.34-0.22 0.44-0.12 0.18-0.16 0.11-0.22 0.11-0.18 0.05-0.39 0.06-0.45-0.06-0.72-0.11-1.46-0.34-0.73-0.16-0.72-0.12h-0.62l-0.61 0.12-0.62 0.22-0.56 0.28-0.5 0.45-0.46 0.45-0.38 0.56-0.28 0.61-0.23 0.62-0.06 0.67v0.67l0.17 0.72 0.12 0.34 0.16 0.34 0.17 0.34 0.28 0.39 0.28 0.28 0.28 0.33 0.39 0.34 0.4 0.28 1.11-1.12 1.29-1.34-0.61-0.12-0.45-0.16-0.34-0.22-0.28-0.23-0.11-0.34-0.11-0.27 0.06-0.34 0.11-0.28 0.17-0.34 0.22-0.22 0.28-0.23 0.39-0.16 0.4-0.06h0.44l0.51 0.11 0.5 0.17 0.73 0.33 0.78 0.18 0.39 0.05h0.45 0.39l0.45-0.05 0.45-0.12 0.39-0.16 0.4-0.23 0.44-0.28 0.34-0.28 0.38-0.39 0.34-0.45 0.28-0.5 2.41-0.06v2.35l-0.67 0.5-0.62 0.51-0.44 0.56-0.17 0.34-0.17 0.27-0.12 0.34-0.11 0.33-0.05 0.4v0.39l0.05 0.39 0.06 0.39 0.23 0.95 0.22 0.79 0.17 0.78 0.05 0.68-0.05 0.55-0.11 0.51-0.17 0.44-0.23 0.29-0.22 0.21-0.28 0.18h-0.34l-0.33-0.06-0.34-0.17-0.34-0.27-0.33-0.4-0.28-0.5-0.28-0.56-2.24 2.18 0.39 0.62 0.45 0.55 0.51 0.45 0.55 0.34 0.57 0.28 0.61 0.17 0.68 0.1 0.61-0.05 0.67-0.05 0.61-0.22 0.57-0.23 0.5-0.39 0.5-0.45 0.4-0.56 0.33-0.62 0.28-0.72 0.06-0.34v-0.28-0.62l-0.28-1.34-0.28-0.73-0.17-0.72-0.11-0.84-0.06-0.39 0.06-0.4 0.11-0.39 0.11-0.34 0.22-0.27 0.34-0.23 0.39-0.11 0.51-0.06 0.39 0.06 0.33 0.11 0.23 0.23 0.17 0.22 0.17 0.34 0.05 0.39v0.34 0.44l-0.11 0.78-0.17 0.68-0.22 0.83-0.12 0.62v0.67 0.68l0.12 0.61 0.22 0.62 0.28 0.55 0.39 0.51 0.45 0.51 0.45 0.33 0.56 0.33 0.56 0.23 0.56 0.17 0.61 0.05h0.62l0.56-0.11 0.62-0.22 0.56-0.34 0.55-0.39 0.51-0.56 0.39-0.67zm21.44 3.58h-60.69v-35.65h60.69v35.65z" fill="#fff"/>
</g>
</g>
</g>
</svg>

<?xml version="1.0" encoding="UTF-8" standalone="no"?>
<!DOCTYPE svg PUBLIC "-//W3C//DTD SVG 1.0//EN" "http://www.w3.org/TR/2001/REC-SVG-20010904/DTD/svg10.dtd">
<!-- Created with Inkscape (http://www.inkscape.org/) by Marsupilami -->
<svg
   xmlns:svg="http://www.w3.org/2000/svg"
   xmlns="http://www.w3.org/2000/svg"
   version="1.0"
   width="687"
   height="768"
   viewBox="-2.38125 -2.38125 84.1375 94.037502"
   id="svg4475">
  <defs
     id="defs4477">
    <clipPath
       id="clipPath2836">
      <path
         d="M 354.48,321.95 L 418.19,321.95 L 418.19,250.32 L 354.48,250.32 L 354.48,321.95 z"
         id="path2838" />
    </clipPath>
    <clipPath
       id="clipPath2848">
      <path
         d="M 354.48,321.95 L 418.19,321.95 L 418.19,250.32 L 354.48,250.32 L 354.48,321.95 z"
         id="path2850" />
    </clipPath>
  </defs>
  <g
     transform="translate(-308.88393,-184.86754)"
     id="layer1">
    <g
       transform="matrix(1.25,0,0,1.25,-134.35357,-128.16996)"
       id="g2832">
      <g
         clip-path="url(#clipPath2836)"
         id="g2834">
        <g
           id="g2840">
          <path
             d="M 354.59,250.43 L 418.09,250.43 L 418.09,290.11 L 418.09,290.11 L 418.09,291.73 L 417.92,293.36 L 417.75,294.92 L 417.47,296.49 L 417.08,298.06 L 416.68,299.57 L 416.18,301.03 L 415.62,302.48 L 414.95,303.88 L 414.28,305.22 L 413.5,306.56 L 412.71,307.85 L 411.82,309.08 L 410.86,310.31 L 409.85,311.44 L 408.8,312.55 L 407.73,313.62 L 406.55,314.57 L 405.38,315.52 L 404.09,316.42 L 402.8,317.26 L 401.51,317.98 L 400.11,318.71 L 398.71,319.33 L 397.26,319.88 L 395.8,320.39 L 394.29,320.83 L 392.77,321.17 L 391.21,321.45 L 389.59,321.67 L 388.02,321.79 L 386.34,321.85 L 386.34,321.85 L 384.71,321.79 L 383.09,321.67 L 381.52,321.45 L 379.96,321.17 L 378.44,320.83 L 376.93,320.39 L 375.42,319.88 L 374.02,319.33 L 372.62,318.71 L 371.22,317.98 L 369.88,317.26 L 368.59,316.42 L 367.36,315.52 L 366.18,314.57 L 365,313.62 L 363.95,312.55 L 362.88,311.44 L 361.87,310.31 L 360.92,309.08 L 360.02,307.85 L 359.23,306.56 L 358.45,305.22 L 357.73,303.88 L 357.11,302.48 L 356.55,301.03 L 356.05,299.57 L 355.6,298.06 L 355.26,296.49 L 354.98,294.92 L 354.76,293.36 L 354.64,291.73 L 354.59,290.11 L 354.59,250.43 z"
             id="path2842"
             style="fill:#000000;fill-opacity:1;fill-rule:evenodd;stroke:none" />
        </g>
      </g>
    </g>
    <g
       transform="matrix(1.25,0,0,1.25,-134.35357,-128.16996)"
       id="g2844">
      <g
         clip-path="url(#clipPath2848)"
         id="g2846">
        <path
           d="M 355.99,288.43 L 416.68,288.43 L 416.68,289.94 L 416.68,289.94 L 416.68,291.51 L 416.57,293.08 L 416.36,294.58 L 416.07,296.1 L 415.73,297.55 L 415.34,299.01 L 414.84,300.41 L 414.34,301.81 L 413.72,303.15 L 413.05,304.49 L 412.32,305.78 L 411.53,307.01 L 410.69,308.19 L 409.8,309.37 L 408.85,310.42 L 407.84,311.49 L 406.78,312.49 L 405.66,313.51 L 404.54,314.4 L 403.3,315.24 L 402.08,316.03 L 400.84,316.76 L 399.49,317.42 L 398.15,318.04 L 396.81,318.6 L 395.36,319.05 L 393.95,319.49 L 392.5,319.83 L 390.99,320.11 L 389.48,320.28 L 387.91,320.39 L 386.34,320.45 L 386.34,320.45 L 384.77,320.39 L 383.26,320.28 L 381.75,320.11 L 380.23,319.83 L 378.78,319.49 L 377.33,319.05 L 375.92,318.6 L 374.53,318.04 L 373.18,317.42 L 371.89,316.76 L 370.61,316.03 L 369.38,315.24 L 368.2,314.4 L 367.08,313.51 L 365.95,312.49 L 364.89,311.49 L 363.89,310.42 L 362.93,309.37 L 362.04,308.19 L 361.2,307.01 L 360.41,305.78 L 359.68,304.49 L 359.02,303.15 L 358.39,301.81 L 357.84,300.41 L 357.39,299.01 L 356.94,297.55 L 356.61,296.1 L 356.39,294.58 L 356.16,293.08 L 356.05,291.51 L 355.99,289.94 L 355.99,288.43 z"
           id="path2852"
           style="fill:#0093dd;fill-opacity:1;fill-rule:evenodd;stroke:#0093dd;stroke-width:0.12;stroke-linecap:round;stroke-linejoin:round;stroke-miterlimit:10;stroke-dasharray:none;stroke-opacity:1" />
        <path
           d="M 395.24,283.9 L 392.95,281.77 L 392.95,281.77 L 392.89,282.05 L 392.72,282.33 L 392.56,282.55 L 392.27,282.78 L 391.99,283.01 L 391.66,283.12 L 391.32,283.17 L 391.04,283.17 L 390.7,283.06 L 390.43,282.83 L 390.2,282.55 L 390.09,282.11 L 389.98,281.55 L 389.98,280.88 L 390.15,280.04 L 390.37,279.03 L 390.37,279.03 L 390.48,278.58 L 390.54,278.19 L 390.54,277.8 L 390.54,277.35 L 390.48,276.96 L 390.43,276.62 L 390.32,276.23 L 390.15,275.89 L 389.81,275.28 L 389.31,274.67 L 388.75,274.16 L 388.13,273.77 L 388.13,273.77 L 388.13,271.36 L 388.13,271.36 L 390.32,271.42 L 390.32,271.42 L 390.43,271.7 L 390.59,271.98 L 390.77,272.26 L 391.04,272.54 L 391.61,273.04 L 391.93,273.26 L 392.33,273.43 L 392.72,273.6 L 393.11,273.77 L 393.5,273.88 L 393.95,273.94 L 394.4,273.94 L 394.85,273.94 L 395.24,273.83 L 395.69,273.65 L 395.69,273.65 L 396.47,273.38 L 397.2,273.21 L 397.82,273.15 L 398.33,273.21 L 398.77,273.32 L 399.11,273.49 L 399.38,273.71 L 399.55,273.99 L 399.61,274.27 L 399.67,274.61 L 399.61,274.89 L 399.49,275.22 L 399.33,275.51 L 399.11,275.73 L 398.77,275.89 L 398.43,276.06 L 398.43,276.06 L 399.67,277.18 L 400.79,278.3 L 400.79,278.3 L 401.23,277.85 L 401.57,277.46 L 401.9,277.07 L 402.13,276.67 L 402.35,276.23 L 402.52,275.83 L 402.63,275.45 L 402.69,275.05 L 402.74,274.72 L 402.74,274.33 L 402.69,273.99 L 402.63,273.6 L 402.52,273.26 L 402.41,272.98 L 402.02,272.37 L 401.57,271.81 L 401.01,271.36 L 400.39,270.97 L 399.72,270.69 L 399.05,270.52 L 398.33,270.46 L 397.59,270.52 L 397.26,270.58 L 396.86,270.69 L 396.86,270.69 L 395.8,271.03 L 394.85,271.14 L 394.13,271.19 L 393.79,271.14 L 393.5,271.08 L 393.23,270.97 L 393,270.86 L 392.83,270.74 L 392.66,270.58 L 392.5,270.24 L 392.39,269.9 L 392.39,269.51 L 392.56,269.12 L 392.77,268.79 L 393.06,268.51 L 393.45,268.28 L 393.9,268.17 L 394.4,268.17 L 394.68,268.23 L 394.96,268.28 L 394.96,268.28 L 395.63,268.51 L 396.25,268.67 L 396.92,268.79 L 397.59,268.9 L 398.21,268.96 L 398.77,268.96 L 399.27,268.96 L 399.61,268.85 L 399.61,268.85 L 400.33,268.56 L 400.9,268.17 L 401.4,267.72 L 401.85,267.22 L 402.13,266.66 L 402.35,266.05 L 402.46,265.37 L 402.52,264.76 L 402.46,264.08 L 402.3,263.47 L 402.08,262.91 L 401.74,262.35 L 401.35,261.85 L 400.84,261.46 L 400.28,261.17 L 399.61,260.95 L 399.61,260.95 L 397.76,263.02 L 397.76,263.02 L 398.33,263.24 L 398.71,263.47 L 399.05,263.75 L 399.33,264.03 L 399.49,264.31 L 399.61,264.64 L 399.61,264.92 L 399.55,265.26 L 399.44,265.54 L 399.22,265.76 L 398.99,265.99 L 398.71,266.15 L 398.38,266.27 L 397.99,266.27 L 397.59,266.27 L 397.15,266.15 L 397.15,266.15 L 396.14,265.76 L 395.18,265.48 L 394.29,265.26 L 393.9,265.26 L 393.5,265.26 L 393.06,265.32 L 392.66,265.42 L 392.27,265.65 L 391.88,265.93 L 391.49,266.27 L 391.1,266.71 L 390.7,267.28 L 390.32,267.89 L 390.32,267.89 L 388.13,267.89 L 388.13,267.89 L 388.07,265.42 L 388.07,265.42 L 388.75,264.92 L 389.31,264.42 L 389.75,263.86 L 390.09,263.3 L 390.32,262.63 L 390.37,261.96 L 390.32,261.17 L 390.2,260.28 L 390.2,260.28 L 390.04,259.38 L 389.92,258.6 L 389.92,257.98 L 389.98,257.42 L 390.15,256.98 L 390.32,256.64 L 390.59,256.42 L 390.82,256.25 L 391.15,256.19 L 391.43,256.19 L 391.77,256.25 L 392.05,256.42 L 392.39,256.58 L 392.66,256.87 L 392.89,257.14 L 393.06,257.48 L 393.06,257.48 L 394.01,256.42 L 394.9,255.35 L 394.9,255.35 L 394.74,254.96 L 394.45,254.63 L 394.18,254.29 L 393.79,254.01 L 393.4,253.73 L 392.95,253.51 L 392.5,253.34 L 391.99,253.17 L 391.43,253.12 L 390.93,253.12 L 390.37,253.17 L 389.86,253.28 L 389.36,253.51 L 388.86,253.79 L 388.41,254.18 L 387.96,254.63 L 387.96,254.63 L 387.8,254.96 L 387.63,255.24 L 387.4,255.91 L 387.23,256.58 L 387.18,257.26 L 387.18,257.87 L 387.29,258.49 L 387.46,259.49 L 387.46,259.49 L 387.63,260.39 L 387.68,261.17 L 387.57,261.79 L 387.4,262.3 L 387.12,262.63 L 386.84,262.91 L 386.45,263.02 L 386.11,263.02 L 385.73,262.96 L 385.39,262.74 L 385.11,262.46 L 384.89,262.01 L 384.77,261.51 L 384.77,260.95 L 384.83,260.22 L 385.11,259.44 L 385.11,259.44 L 385.27,258.88 L 385.39,258.32 L 385.5,257.65 L 385.44,256.98 L 385.33,256.3 L 385.11,255.64 L 385,255.35 L 384.77,255.01 L 384.55,254.74 L 384.32,254.46 L 384.32,254.46 L 383.98,254.18 L 383.6,253.9 L 383.2,253.67 L 382.82,253.51 L 382.36,253.34 L 381.92,253.28 L 381.46,253.23 L 380.96,253.23 L 380.51,253.28 L 380.01,253.4 L 379.51,253.62 L 379.06,253.85 L 378.55,254.18 L 378.11,254.57 L 377.66,255.07 L 377.21,255.58 L 379.57,257.87 L 379.57,257.87 L 379.67,257.42 L 379.85,257.03 L 380.07,256.76 L 380.35,256.47 L 380.68,256.3 L 381.02,256.19 L 381.35,256.14 L 381.64,256.19 L 381.98,256.36 L 382.19,256.58 L 382.42,256.87 L 382.59,257.31 L 382.64,257.82 L 382.64,258.49 L 382.53,259.21 L 382.25,260.11 L 382.25,260.11 L 382.14,260.67 L 382.03,261.17 L 381.98,261.67 L 382.03,262.13 L 382.08,262.52 L 382.19,262.91 L 382.3,263.3 L 382.48,263.64 L 382.7,263.92 L 382.92,264.2 L 383.43,264.7 L 383.93,265.15 L 384.43,265.48 L 384.49,267.89 L 384.49,267.89 L 382.19,267.89 L 382.19,267.89 L 381.98,267.5 L 381.69,267.11 L 381.41,266.77 L 381.08,266.44 L 380.74,266.21 L 380.35,265.99 L 379.96,265.82 L 379.51,265.65 L 379.06,265.54 L 378.61,265.48 L 378.17,265.48 L 377.66,265.48 L 376.71,265.6 L 375.81,265.82 L 375.81,265.82 L 375.03,265.99 L 374.42,266.1 L 373.85,266.1 L 373.4,265.99 L 373.07,265.82 L 372.85,265.6 L 372.67,265.37 L 372.56,265.04 L 372.56,264.7 L 372.62,264.42 L 372.73,264.08 L 372.96,263.75 L 373.18,263.47 L 373.52,263.24 L 373.85,263.08 L 374.24,262.96 L 374.24,262.96 L 373.29,262.07 L 372.4,261.12 L 372.4,261.12 L 372.06,261.23 L 371.78,261.4 L 371.5,261.57 L 371.22,261.79 L 370.99,262.01 L 370.77,262.3 L 370.44,262.91 L 370.27,263.53 L 370.15,264.26 L 370.15,264.92 L 370.21,265.65 L 370.44,266.33 L 370.72,266.99 L 371.11,267.55 L 371.56,268.06 L 371.83,268.28 L 372.12,268.45 L 372.45,268.62 L 372.79,268.73 L 373.13,268.79 L 373.52,268.85 L 373.9,268.85 L 374.3,268.79 L 374.3,268.79 L 375.58,268.56 L 376.93,268.33 L 376.93,268.33 L 377.55,268.23 L 378.05,268.23 L 378.55,268.23 L 378.95,268.33 L 379.34,268.51 L 379.57,268.79 L 379.67,268.96 L 379.73,269.12 L 379.79,269.57 L 379.79,269.57 L 379.79,269.96 L 379.73,270.3 L 379.62,270.52 L 379.51,270.74 L 379.39,270.92 L 379.23,271.03 L 379.01,271.14 L 378.83,271.19 L 378.44,271.25 L 377.99,271.19 L 377.27,271.08 L 377.27,271.08 L 375.81,270.74 L 375.08,270.58 L 374.36,270.46 L 374.36,270.46 L 373.74,270.46 L 373.13,270.58 L 372.51,270.8 L 371.95,271.08 L 371.45,271.53 L 370.99,271.98 L 370.61,272.54 L 370.33,273.15 L 370.1,273.77 L 370.04,274.44 L 370.04,275.11 L 370.21,275.83 L 370.33,276.17 L 370.49,276.51 L 370.66,276.85 L 370.94,277.24 L 371.22,277.52 L 371.5,277.85 L 371.89,278.19 L 372.29,278.47 L 372.29,278.47 L 373.4,277.35 L 374.69,276.01 L 374.69,276.01 L 374.08,275.89 L 373.63,275.73 L 373.29,275.51 L 373.01,275.28 L 372.9,274.94 L 372.79,274.67 L 372.85,274.33 L 372.96,274.05 L 373.13,273.71 L 373.35,273.49 L 373.63,273.26 L 374.02,273.1 L 374.42,273.04 L 374.86,273.04 L 375.37,273.15 L 375.87,273.32 L 375.87,273.32 L 376.6,273.65 L 377.38,273.83 L 377.77,273.88 L 378.22,273.88 L 378.61,273.88 L 379.06,273.83 L 379.51,273.71 L 379.9,273.55 L 380.3,273.32 L 380.74,273.04 L 381.08,272.76 L 381.46,272.37 L 381.8,271.92 L 382.08,271.42 L 382.08,271.42 L 384.49,271.36 L 384.49,273.71 L 384.49,273.71 L 383.82,274.21 L 383.2,274.72 L 382.76,275.28 L 382.59,275.62 L 382.42,275.89 L 382.3,276.23 L 382.19,276.56 L 382.14,276.96 L 382.14,277.35 L 382.19,277.74 L 382.25,278.13 L 382.48,279.08 L 382.48,279.08 L 382.7,279.87 L 382.87,280.65 L 382.92,281.33 L 382.87,281.88 L 382.76,282.39 L 382.59,282.83 L 382.36,283.12 L 382.14,283.33 L 381.86,283.51 L 381.52,283.51 L 381.19,283.45 L 380.85,283.28 L 380.51,283.01 L 380.18,282.61 L 379.9,282.11 L 379.62,281.55 L 379.62,281.55 L 377.38,283.73 L 377.38,283.73 L 377.77,284.35 L 378.22,284.9 L 378.73,285.35 L 379.28,285.69 L 379.85,285.97 L 380.46,286.14 L 381.14,286.24 L 381.75,286.19 L 382.42,286.14 L 383.03,285.92 L 383.6,285.69 L 384.1,285.3 L 384.6,284.85 L 385,284.29 L 385.33,283.67 L 385.61,282.95 L 385.61,282.95 L 385.67,282.61 L 385.67,282.33 L 385.67,281.71 L 385.39,280.37 L 385.39,280.37 L 385.11,279.64 L 384.94,278.92 L 384.83,278.08 L 384.77,277.69 L 384.83,277.29 L 384.94,276.9 L 385.05,276.56 L 385.27,276.29 L 385.61,276.06 L 386,275.95 L 386.51,275.89 L 386.51,275.89 L 386.9,275.95 L 387.23,276.06 L 387.46,276.29 L 387.63,276.51 L 387.8,276.85 L 387.85,277.24 L 387.85,277.58 L 387.85,278.02 L 387.74,278.8 L 387.57,279.48 L 387.35,280.31 L 387.35,280.31 L 387.23,280.93 L 387.23,281.6 L 387.23,282.28 L 387.35,282.89 L 387.35,282.89 L 387.57,283.51 L 387.85,284.06 L 388.24,284.57 L 388.69,285.08 L 389.14,285.41 L 389.7,285.74 L 390.26,285.97 L 390.82,286.14 L 391.43,286.19 L 392.05,286.19 L 392.61,286.08 L 393.23,285.86 L 393.79,285.52 L 394.34,285.13 L 394.85,284.57 L 395.24,283.9 L 395.24,283.9 z M 416.68,287.48 L 355.99,287.48 L 355.99,251.83 L 416.68,251.83 L 416.68,287.48 z"
           id="path2854"
           style="fill:#ffffff;fill-opacity:1;fill-rule:evenodd;stroke:none" />
      </g>
    </g>
  </g>
</svg>
<!-- version: 20080810, original size: 79.375 89.275002, border: 3% -->
